apps/docs/app/favicon.svg

<svg fill="none" height="32" viewBox="0 0 32 32" width="32" xmlns="http://www.w3.org/2000/svg"><path d="m16 0c-13.176 0-16 2.824-16 16s2.824 16 16 16 16-2.824 16-16-2.824-16-16-16z" fill="#000"/><g fill="#fff"><path d="m17.5001 8.59222c0-.82842-.6716-1.5-1.5-1.5-.8285 0-1.5.67158-1.5 1.5v3.90778h-4.0001c-.82843 0-1.5.6716-1.5 1.5s.67157 1.5 1.5 1.5h4.0001v3h3v-3h3.9999c.8284 0 1.5-.6716 1.5-1.5s-.6716-1.5-1.5-1.5h-3.9999z"/><path d="m10.5 20c-.82843 0-1.5.6716-1.5 1.5s.67157 1.5 1.5 1.5h11c.8284 0 1.5-.6716 1.5-1.5s-.6716-1.5-1.5-1.5z"/></g></svg>

<svg width="32" height="32" viewBox="0 0 32 32" fill="none" xmlns="http://www.w3.org/2000/svg">
<path d="M16 0C2.824 0 0 2.824 0 16C0 29.176 2.824 32 16 32C29.176 32 32 29.176 32 16C32 2.824 29.176 0 16 0Z" fill="black"/>
<path d="M17.5001 8.59222C17.5001 7.7638 16.8285 7.09222 16.0001 7.09222C15.1716 7.09222 14.5001 7.7638 14.5001 8.59222V12.5H10.5C9.67157 12.5 9 13.1716 9 14C9 14.8284 9.67157 15.5 10.5 15.5H14.5001V18.5H17.5001V15.5H21.5C22.3284 15.5 23 14.8284 23 14C23 13.1716 22.3284 12.5 21.5 12.5H17.5001V8.59222Z" fill="white"/>
<path d="M10.5 20C9.67157 20 9 20.6716 9 21.5C9 22.3284 9.67157 23 10.5 23H21.5C22.3284 23 23 22.3284 23 21.5C23 20.6716 22.3284 20 21.5 20H10.5Z" fill="white"/>
</svg>
